la/oil-can-solid.svg

<svg xmlns="http://www.w3.org/2000/svg" viewBox="0 0 32 32" height="1em" width="1em">
  <path d="M 11 9 L 11 11 L 13 11 L 13 13 L 7.5625 13 L 5.84375 10.4375 L 5.53125 10 L 1 10 L 1 15.6875 L 6 17.6875 L 6 25 L 20.53125 25 L 20.8125 24.5625 L 29.5 12 L 31 12 L 31 10 L 27.65625 10 L 27.40625 10.1875 L 21 15 L 21 13 L 15 13 L 15 11 L 17 11 L 17 9 Z M 3 12 L 4.4375 12 L 6 14.34375 L 6 15.5 L 3 14.3125 Z M 25.78125 13.9375 L 19.5 23 L 8 23 L 8 15 L 19 15 L 19 19 L 20.59375 17.8125 Z M 29.5 16 C 29.5 16 28 18.671875 28 19.5 C 28 20.328125 28.671875 21 29.5 21 C 30.328125 21 31 20.328125 31 19.5 C 31 18.671875 29.5 16 29.5 16 Z"/>
</svg>

<svg xmlns="http://www.w3.org/2000/svg" viewBox="0 0 32 32" height="1em" width="1em">
  <path d="M11 9v2h2v2H7.562l-1.718-2.563L5.53 10H1v5.688l5 2V25h14.531l.282-.438L29.5 12H31v-2h-3.344l-.25.188L21 15v-2h-6v-2h2V9Zm-8 3h1.438L6 14.344V15.5l-3-1.188Zm22.781 1.938L19.5 23H8v-8h11v4l1.594-1.188ZM29.5 16S28 18.672 28 19.5a1.5 1.5 0 0 0 3 0c0-.828-1.5-3.5-1.5-3.5Z"/>
</svg>
